common/src/main/resources/icons/plugins/python/python/DataView.svg

<svg xmlns="http://www.w3.org/2000/svg" width="16" height="16" fill="#C792EA" data-big="true" viewBox="0 0 24 24"><path d="M4 3h16a2 2 0 0 1 2 2v15a2 2 0 0 1-2 2H4a2 2 0 0 1-2-2V5a2 2 0 0 1 2-2m0 4v3h4V7zm6 0v3h4V7zm10 3V7h-4v3zM4 12v3h4v-3zm0 8h4v-3H4zm6-8v3h4v-3zm0 8h4v-3h-4zm10 0v-3h-4v3zm0-8h-4v3h4z"/></svg>

<!--
  - The MIT License (MIT)
  -
  - Copyright (c) 2015-2024 Elior "Mallowigi" Boukhobza
  -
  - Permission is hereby granted, free of charge, to any person obtaining a copy
  - of this software and associated documentation files (the "Software"), to deal
  - in the Software without restriction, including without limitation the rights
  - to use, copy, modify, merge, publish, distribute, sublicense, and/or sell
  - copies of the Software, and to permit persons to whom the Software is
  - furnished to do so, subject to the following conditions:
  -
  - The above copyright notice and this permission notice shall be included in all
  - copies or substantial portions of the Software.
  -
  - THE SOFTWARE IS PROVIDED "AS IS", WITHOUT WARRANTY OF ANY KIND, EXPRESS OR
  - IMPLIED, INCLUDING BUT NOT LIMITED TO THE WARRANTIES OF MERCHANTABILITY,
  - FITNESS FOR A PARTICULAR PURPOSE AND NONINFRINGEMENT. IN NO EVENT SHALL THE
  - AUTHORS OR COPYRIGHT HOLDERS BE LIABLE FOR ANY CLAIM, DAMAGES OR OTHER
  - LIABILITY, WHETHER IN AN ACTION OF CONTRACT, TORT OR OTHERWISE, ARISING FROM,
  - OUT OF OR IN CONNECTION WITH THE SOFTWARE OR THE USE OR OTHER DEALINGS IN THE
  - SOFTWARE.
  -->


<svg data-big="true" xmlns="http://www.w3.org/2000/svg" version="1.1" width="16px" height="16px" fill="#C792EA"
     viewBox="0 0 24 24">
  <path
    d="M4,3H20A2,2 0 0,1 22,5V20A2,2 0 0,1 20,22H4A2,2 0 0,1 2,20V5A2,2 0 0,1 4,3M4,7V10H8V7H4M10,7V10H14V7H10M20,10V7H16V10H20M4,12V15H8V12H4M4,20H8V17H4V20M10,12V15H14V12H10M10,20H14V17H10V20M20,20V17H16V20H20M20,12H16V15H20V12Z"/>
</svg>
